X: 1371
T: Daisy's Schottische No 2
B: australian traditional tunes wiki
M:4/4
L:1/8
R: Schottische
Q: 1/4=100
K:G
V:1 
B>c|"G"d2d2d2g>f|"C"e2ede2a>g|"D7"fg ab c'2f2|"G"gfgab2B>c|
d2d2d2g>f|"C"e2ede2a>g|"D7"fgabc'2b2|"G"g2g2g2d2|
"Am"e2A>B"D7"c2c2|"G"d2G>AB2cB|"D7"A2A2A2BA|"G"G2G2G2d2|
"Am"e2A>B"D7"c2c2|"G"d2G>AB2c>B|"D7"AG FED2B>G|"G"G2G2G2||
% abcbook-tune_id 6342d53aba0addf564898c15


% abcbook-boost 0
% abcbook-tablature 
% abcbook-transpose 
% abcbook-lastupdated 1665324361547
% abcbook-soundfonts 
% abcbook-repeats 1
% NFF Book 2017

